X:1
T:Title
%%score { ( 1 3 ) | ( 2 4 ) }
L:1/8
M:4/4
K:F
V:1 treble nm="Grand Piano"
V:3 treble 
V:2 bass 
V:4 bass 
V:1
 z4 z2[Q:1/4=112] F2 | A2 A2 G2 F2 | [EG]2 [EA]2 F2 A2 | c2 dd c2 F2 | %4
[M:9/8] [FA]3- [FA] [EG]2- [EG] F2 |[M:4/4] A2 A2 G2 F2 | [EG]2 [EA]2 F2 A2 | c2 dd c2 F2 | G4 z4 | %9
 c2 c2 d c3 | A[Ac][Ac][FA] [CF]4 | z4 [EG]4 | FFFG A4 | c2 c2 d c3 | %14
 A[CAc][CAc][CFA] [A,F]2 [=B,FG]2 | [CFA]2 [CFA][CFA] [CFA]2 [A,F]2 |[M:7/8] E2 z z z z2 |] %17
V:2
 z4 z2 [F,A,]2 | [F,CF]2 [F,CF]2 [F,B,F]2 [F,A,]2 | [C,B,]2 [C,C]2 [F,A,]2 [F,CF]2 | %3
 [F,A,F]2 [F,B,F][F,B,F] [F,A,F]2 [F,A,]2 |[M:9/8] [C,C]3- [C,C] [C,C]2- [C,C] [F,A,]2 | %5
[M:4/4] [F,CF]2 [F,CF]2 [F,B,F]2 [F,A,]2 | [C,B,]2 [C,C]2 [F,A,]2 [F,CF]2 | %7
 [F,A,F]2 [F,B,F][F,B,F] [F,A,F]2 [F,A,]2 | [C,B,]4 [F,A,C]4 | [F,A,F]2 [F,A,F]2 [F,B,F] [F,A,F]3 | %10
 [F,CF][F,C][F,C][F,C] [F,A,]4 | [C,C][C,C][C,C][C,C] [C,C]2 B,2 | [A,C][A,C][A,C][G,CE] [F,CF]4 | %13
 [F,A,F]2 [F,A,F]2 [F,B,F] [F,A,F]3 | [F,CF]F,F,F, F,2 D,2 | C,2 C,C, C,2 C,2 |[M:7/8] z2 C2 F,3 |] %17
V:3
 x8 | x8 | x8 | x8 |[M:9/8] x9 |[M:4/4] x8 | x8 | x8 | E2 C2 F4 | x8 | x8 | %11
 [EG][EG][EG][EG] z2 C2 | x8 | x8 | x8 | x8 |[M:7/8] [B,G]- [B,G]3 [A,CF]3 |] %17
V:4
 x8 | x8 | x8 | x8 |[M:9/8] x9 |[M:4/4] x8 | x8 | x8 | x8 | x8 | x8 | x8 | x8 | x8 | x8 | x8 | %16
[M:7/8] C,- C,3 z z2 |] %17

